X:1
T:Title
%%score { 1 | 2 }
L:1/8
Q:1/4=100
M:4/4
K:F
V:1 treble nm="Grand Piano"
V:2 bass 
V:1
 A3 A G2 F2 | E2 F2 [EA]2 [EG]2 | [DEB]3 [DEB] [CEA]2 [B,EG]2 | [A,F]2 [B,EG]2 A4 | c3 c d2 c2 | %5
w: H.~W.~Hawkes * * *|||||
 [_Ec]2 [DB]2 [DA]2 [DG]2 | [CF]2 [FA]2 [Ec]2 [DEB]2 | [CEA]2 [B,EG]2 [A,F]4 |] %8
w: |||
V:2
 [F,A,C]3 [F,A,C] [F,B,C]2 [F,A,C]2 | [F,G,C]2 [F,A,C]2 [C,C]2 [C,C]2 | C,3 C, C,2 C,2 | %3
 C,2 C,2 [F,CF]4 | [F,A,_E]3 [F,A,E] [F,A,F]2 [F,A,E]2 | [B,,F,]2 [B,,F,]2 [B,,G,]2 [B,,B,]2 | %6
 [C,A,]2 [C,C]2 [C,G,]2 C,2 | C,2 C,2 F,4 |] %8

